dist/img/vk.svg

<svg width="20" height="20" viewBox="0 0 20 20" fill="none" xmlns="http://www.w3.org/2000/svg">
<circle cx="10" cy="10" r="10" fill="white"/>
<path d="M15.3848 12.1117C15.2017 11.8682 15.1607 11.6216 15.2608 11.3718C15.5104 10.7052 19.147 6.47177 17.6321 6.47177C16.5911 6.48534 15.3391 6.47177 14.3411 6.47177C14.1558 6.51598 14.036 6.61131 13.961 6.80526C13.3774 8.12455 12.6632 9.73456 11.6166 10.7693C11.4789 10.8781 11.393 10.8735 11.2361 10.8332C10.502 10.0755 11.2848 7.47923 10.8383 6.45338C10.7503 6.25257 10.5577 6.16187 10.3607 6.1108C9.3639 5.87791 7.08743 6.01653 6.716 6.48534C6.60982 6.61935 6.59501 6.69249 6.67166 6.70451C7.02556 6.75925 7.27609 6.8902 7.42354 7.09722C7.70172 7.6978 7.90673 10.897 7.08743 10.897C6.26814 10.897 4.947 7.75734 4.58406 6.88697C4.48748 6.6249 4.24161 6.47466 3.98254 6.43031L1.5587 6.44848C1.13265 6.44848 0.894536 6.65453 1.04555 7.06964C2.30798 10.1419 5.07063 16.097 9.30783 15.9479C9.73229 15.9479 10.4625 16.1077 10.794 15.7469C11.2496 15.1544 10.694 14.099 11.4752 13.6966C11.6722 13.5938 11.8764 13.68 12.0457 13.8063C12.9146 14.455 13.3759 15.5935 14.4475 15.9391C14.6359 16 14.801 16.0152 14.9427 15.9848L17.2073 15.9483C17.6277 15.9483 18.0418 15.7649 17.9548 15.2722C17.6247 14.2154 16.3092 13.1291 15.3848 12.1117Z" fill="black"/>
</svg>

<svg width="20" height="20" fill="none" xmlns="http://www.w3.org/2000/svg"><circle cx="10" cy="10" r="10" fill="#fff"/><path d="M15.385 12.112c-.183-.244-.224-.49-.124-.74.25-.667 3.886-4.9 2.371-4.9-1.04.013-2.293 0-3.29 0a.494.494 0 0 0-.381.333c-.584 1.32-1.298 2.93-2.344 3.964-.138.11-.224.104-.38.064-.735-.758.048-3.354-.399-4.38-.088-.2-.28-.291-.477-.342-.997-.233-3.274-.094-3.645.374-.106.134-.121.207-.044.22.354.054.604.185.752.392.278.6.483 3.8-.337 3.8-.819 0-2.14-3.14-2.503-4.01-.097-.262-.342-.412-.601-.457l-2.424.018c-.426 0-.664.207-.513.622 1.262 3.072 4.025 9.027 8.262 8.878.424 0 1.155.16 1.486-.201.456-.593-.1-1.648.681-2.05.197-.103.401-.017.57.11.87.648 1.33 1.787 2.402 2.132.189.061.354.076.496.046l2.264-.037c.42 0 .835-.183.748-.676-.33-1.057-1.646-2.143-2.57-3.16Z" fill="#000"/></svg>
